img/Slider/arrow_right.svg

<svg width="56" height="24" viewBox="0 0 56 24" fill="none" xmlns="http://www.w3.org/2000/svg">
<path d="M2 10.5C1.17157 10.5 0.5 11.1716 0.5 12C0.5 12.8284 1.17157 13.5 2 13.5V10.5ZM55.0607 13.0607C55.6464 12.4749 55.6464 11.5251 55.0607 10.9393L45.5147 1.3934C44.9289 0.807611 43.9792 0.807611 43.3934 1.3934C42.8076 1.97919 42.8076 2.92893 43.3934 3.51472L51.8787 12L43.3934 20.4853C42.8076 21.0711 42.8076 22.0208 43.3934 22.6066C43.9792 23.1924 44.9289 23.1924 45.5147 22.6066L55.0607 13.0607ZM2 13.5H54V10.5H2V13.5Z" fill="#54FFE0"/>
</svg>

<svg width="56" height="24" fill="none" xmlns="http://www.w3.org/2000/svg"><path d="M2 10.5a1.5 1.5 0 0 0 0 3v-3Zm53.06 2.56a1.5 1.5 0 0 0 0-2.12l-9.545-9.547a1.5 1.5 0 1 0-2.122 2.122L51.88 12l-8.486 8.485a1.5 1.5 0 1 0 2.122 2.122l9.546-9.546ZM2 13.5h52v-3H2v3Z" fill="#54FFE0"/></svg>
